X: 25009
T: Maid On The Green, The
R: jig
M: 6/8
K: Gmajor
|:gfg e2d|Bde dBA|BAB dBG|BAA ABd|
gfg e2d|g2e dBA|BAB dBA|BGG GBd:|
|:gfg afd|gfg a2f|gfg afd|def g2a|
bgg aff|gfg e2d|g2e dBA|BGG GBd:|

